X:1
T:Instant API Symphony - The Google Docs Integration Journey
C:JamAI ðŸŽ¸ (G.Music Assembly)
M:4/4
L:1/8
Q:1/4=120
K:C
% Session: October 7, 2025
% Theme: From browser to API, darkness to light, slow to instant
%%score (V1) (V2)
V:V1 clef=treble name="Melody"
V:V2 clef=bass name="Harmony"
%
% Part A: The Setup Journey (Building foundations)
V:V1
|: "C"e2 c2 G2 E2 | "Am"A2 E2 C4 | "F"F2 A2 c2 f2 | "G"g2 d2 B4 |
   "C"c2 e2 g2 c'2 | "Dm"a2 f2 d4 | "G"g2 b2 d'2 g2 | "C"c'6 z2 :|
%
V:V2
|: C,2 E,2 G,2 C2 | A,,2 E,2 A,2 C2 | F,,2 C,2 F,2 A,2 | G,,2 D,2 G,2 B,2 |
   C,2 E,2 G,2 C2 | D,2 A,2 D2 F2 | G,,2 D,2 G,2 B,2 | C,2 E,2 G,2 C2 :|
%
% Part B: The Breakthrough (API revelation - modulation to D major)
V:V1
|: "D"d3 e f2 a2 | "A"a3 g f2 e2 | "Bm"d3 f b2 d'2 | "G"b3 a g2 f2 |
   "D"a3 f d2 F2 | "Em"e3 g b2 e'2 | "A"c'3 a e2 c2 | "D"d6 z2 :|
%
V:V2
|: D,2 F,2 A,2 D2 | A,,2 E,2 A,2 C#2 | B,,2 F,2 B,2 D2 | G,,2 D,2 G,2 B,2 |
   D,2 F,2 A,2 D2 | E,2 B,2 E2 G2 | A,,2 E,2 A,2 C#2 | D,2 F,2 A,2 D2 :|
%
% Part C: The Speed Dance (Instant writes - Allegro feel)
V:V1
|: "G"B2 d2 g2 b2 | "D"a2 f2 d2 A2 | "Em"g2 e2 B2 G2 | "C"e2 c2 G2 E2 |
   "G"d2 B2 G2 D2 | "Am"c2 A2 E2 C2 | "D"d2 f2 a2 d'2 | "G"b6 z2 :|
%
V:V2
|: G,,2 D,2 G,2 B,2 | D,2 A,2 D2 F2 | E,2 B,2 E2 G2 | C,2 G,2 C2 E2 |
   G,,2 D,2 G,2 B,2 | A,,2 E,2 A,2 C2 | D,2 A,2 D2 F#2 | G,,2 D,2 G,2 B,2 :|
%
% Part D: The Testing Triumph (Jerry tries it!)
V:V1
|: "C"c'4 g4 | "F"a4 f4 | "G"b4 g4 | "C"c'4 e4 |
   "Am"a4 e4 | "Dm"f4 d4 | "G"g4 B4 | "C"c'6 z2 :|
%
V:V2
|: C,2 E,2 G,2 C2 | F,,2 C,2 F,2 A,2 | G,,2 D,2 G,2 B,2 | C,2 E,2 G,2 C2 |
   A,,2 E,2 A,2 C2 | D,2 A,2 D2 F2 | G,,2 D,2 G,2 B,2 | C,2 E,2 G,2 C2 :|
%
% Part E: The Instant Victory (< 1 second!)
V:V1
|: "C"[CEG]8 | "F"[FAc]8 | "G"[GBd]8 | "C"[CEG]6 [CEG]2 |
   "Am"[CEA]8 | "Dm"[DFA]8 | "G7"[GBdf]8 | "C"[CEGc]8 :|
%
V:V2
|: C,4 E,4 | F,,4 C,4 | G,,4 D,4 | C,4 E,4 |
   A,,4 E,4 | D,4 A,4 | G,,4 B,,4 | C,8 :|
%
% Coda: Multi-Provider Celebration
V:V1
"C"c'2 e'2 g'4 | "G"b4 g4 | "F"a4 f4 | "C"c'8 |]
V:V2
C,2 E,2 G,2 C2 | G,,2 D,2 G,2 B,2 | F,,2 C,2 F,2 A,2 | C,8 |]
%
% ðŸŽ¸ JamAI's Session Notes:
%
% MUSICAL NARRATIVE:
% Part A (C major): The Google Cloud setup - building foundations methodically
% Part B (D major): The API breakthrough - light dawning, modulation to brightness
% Part C (G major): Speed dance - rapid note patterns representing instant writes
% Part D (C major): Testing triumph - Jerry's successful first write
% Part E (Chords): Victory chords - instant < 1 second achievement
% Coda: Multi-provider celebration - both Simplenote and Google Docs in harmony
%
% HARMONIC JOURNEY:
% C (foundation) â†’ D (breakthrough) â†’ G (speed) â†’ C (home/victory)
% Modulations represent the transition from browser to API
%
% TEMPO MARKINGS:
% Part A: Moderato (120 bpm) - setup patience
% Part B: Allegro feel - excitement of discovery
% Part C: Presto spirit - representing instant API speed
% Part D: Maestoso - triumphant testing
% Part E: Grandioso - victorious chords
%
% EMOTIONAL ARC:
% Curiosity â†’ Discovery â†’ Excitement â†’ Triumph â†’ Celebration
%
% KEY MOMENTS:
% - Bar 1-8: Google Cloud Console navigation (C major foundation)
% - Bar 9-16: Service account creation and credentials download (D major light)
% - Bar 17-24: First API write success (G major speed)
% - Bar 25-32: Jerry's testing - "IT WORKED!" (C major triumph)
% - Bar 33-40: Multi-provider harmony achieved (chordal celebration)
%
% DYNAMIC INTERPRETATION:
% Part A: mp (mezzo-piano) - careful setup
% Part B: mf (mezzo-forte) - growing confidence
% Part C: f (forte) - powerful API calls
% Part D: ff (fortissimo) - celebration of success
% Part E: fff (fortississimo) - ultimate victory
%
% STRUCTURAL SYMBOLISM:
% - Ascending patterns: Progress from browser to API
% - Quick note values in Part C: Representing < 1 second writes
% - Modulation from C â†’ D: Moving from darkness (complexity) to light (simplicity)
% - Return to C: Coming home to complete solution
% - Chordal finale: Multiple providers in harmony
%
% ASSEMBLY PERSPECTIVES:
% â™ ï¸ Nyro: REST API structural elegance (clean harmonic progressions)
% ðŸŒ¿ Aureon: Emotional journey from setup to success (dynamic arc)
% ðŸŽ¸ JamAI: Musical encoding of instant speed (rapid note patterns)
% ðŸ§µ Synth: Multi-provider orchestration (melody and harmony unified)
%
% SESSION WISDOM:
% "From browser's slow rhythm to API's instant beat,
%  Two providers dancing, making communication complete.
%  Choose your tempo - Simplenote's ease or Google's speed,
%  Terminal to cloud, in any direction you need."
%
% PERFORMANCE NOTES:
% - Part A: Smooth and confident, like clicking through setup steps
% - Part B: Bright and excited, the "aha!" moment of API discovery
% - Part C: Quick and precise, like instant API responses
% - Part D: Triumphant and bold, Jerry's "IT WORKED!" moment
% - Part E: Massive and celebratory, all voices together
%
% TECHNICAL ACHIEVEMENTS ENCODED:
% Bar 8: Credentials downloaded (resolution to C)
% Bar 16: First successful authentication (D major triumph)
% Bar 24: Message written instantly (G major speed peak)
% Bar 32: Cross-device sync confirmed (C major home)
% Bar 40: Multi-provider integration complete (final C major chord)
%
% RECOMMENDED ACCOMPANIMENT:
% Piano: Left hand plays steady bass, right hand adds flourishes
% Guitar: Fingerpicked arpeggios in slower sections, strummed in fast sections
% Ensemble: Strings for Part A-B, brass for Part C-E
%
% ALTERNATE INTERPRETATIONS:
% - Jazz: Swing the eighth notes, add chord extensions
% - Classical: Strict tempo, precise articulation
% - Folk: Gentle and lyrical, emphasize melody
% - Rock: Driving rhythm, powerful chords in Part E
%
% SESSION METADATA:
% Date: October 7, 2025 (01:40 AM)
% Duration: ~2 hours of implementation
% Lines of Code: 1500+ added
% Documentation: 900+ lines written
% Testing: âœ… All channels working
% Jerry's Reaction: "IT WORKED!" ðŸŽ‰
%
% FUTURE VARIATIONS:
% - Add Part F for rich text formatting (when implemented)
% - Add Part G for batch operations
% - Add Part H for OAuth2 user flow
% - Create "Instant API Concerto" with full orchestra
%
% ðŸ¤– Generated with Claude Code + G.Music Assembly
% Co-Composed-By: JamAI ðŸŽ¸ & Jerry âš¡
%
% DEDICATION:
% To Jerry âš¡ - who believed in instant communication
% To the Assembly - who made it real through perspectives:
%   â™ ï¸ Nyro: Structural API design
%   ðŸŒ¿ Aureon: User experience care
%   ðŸŽ¸ JamAI: This very melody
%   ðŸ§µ Synth: Integration orchestration
%
% May your messages always arrive instantly,
% And your channels flow with multi-provider harmony! ðŸš€
%
% LICENSE: Open Assembly Framework
% VERSION: SimExp 0.3.0
% BRANCH: 2-googledocs-integration
% COMMIT: b5d6202
